src/topics/icons/rubymine.svg

<svg height="256" preserveAspectRatio="xMidYMid" viewBox="0 0 256 256" width="256" xmlns="http://www.w3.org/2000/svg" xmlns:xlink="http://www.w3.org/1999/xlink"><linearGradient id="a" x1="67.621528%" x2="37.048611%" y1="100.512713%" y2="13.665376%"><stop offset=".17" stop-color="#ff1f51"/><stop offset=".28" stop-color="#ff3648"/><stop offset=".47" stop-color="#ff593b"/><stop offset=".65" stop-color="#ff7231"/><stop offset=".81" stop-color="#ff812b"/><stop offset=".94" stop-color="#ff8629"/></linearGradient><linearGradient id="b" x1="61.538462%" x2="43.605769%" y1="22.903698%" y2="91.688026%"><stop offset=".02" stop-color="#9039d0"/><stop offset=".63" stop-color="#ff1f51"/></linearGradient><linearGradient id="c" x1=".474684%" x2="81.833465%" y1="8.066034%" y2="97.528013%"><stop offset=".11" stop-color="#9039d0"/><stop offset=".39" stop-color="#ff1f51"/><stop offset=".63" stop-color="#ff1f51"/><stop offset=".66" stop-color="#ff3648"/><stop offset=".71" stop-color="#ff593b"/><stop offset=".77" stop-color="#ff7231"/><stop offset=".81" stop-color="#ff812b"/><stop offset=".85" stop-color="#ff8629"/></linearGradient><path d="m212.48 0-72.54 26.46-58.02-26.46-56.32 142.5 64.86-26.44-.86 72.52 139.1 2.56 27.3-140.8z" fill="url(#a)"/><path d="m186.02 82.78-92.16-60.6-74.24 46.08 163 63.16z" fill="url(#b)"/><path d="m106.66 249.18 95.58-12.8-30.72-58.88 20.48-23.9 1.7-15.36-99.84-116.06-93.86 23.04v134.84l53.76 75.94z" fill="url(#c)"/><path d="m42.66 42.66h170.66v170.66h-170.66z"/><path d="m126.3 59.74h17.06l17.92 32.42 18.78-32.42h16.2v76.8h-15.36v-50.36l-19.62 33.28-19.62-32.42v49.5h-15.36zm-66.56 0h31.56c8.5333333 0 15.36 2.56 20.48 7.68 4.26 4.26 6 10.24 6 18 .018423 5.4141811-1.455534 10.7287295-4.26 15.36-2.466739 4.165845-6.44103 7.223542-11.1 8.54l17.06 27.3h-18l-14.44-23.98h-12.8v23.9h-15.36v-76.8zm30.72 37.54c3.0620834.2030749 6.0945691-.7059606 8.54-2.56 2.128606-1.9943542 3.361813-4.7636625 3.42-7.68.167678-3.2104827-1.082669-6.3326939-3.42-8.54-2.4536503-1.8327046-5.4853786-2.7202128-8.54-2.5h-15.36v22.14h15.36zm-30.72 87.9h64v10.24h-64z" fill="#fff"/></svg>

<?xml version="1.0" encoding="UTF-8" standalone="no"?>
<svg width="256px" height="256px" viewBox="0 0 256 256" version="1.1" xmlns="http://www.w3.org/2000/svg" xmlns:xlink="http://www.w3.org/1999/xlink" preserveAspectRatio="xMidYMid">
    <defs>
        <linearGradient x1="67.6215278%" y1="100.512713%" x2="37.0486111%" y2="13.6653762%" id="linearGradient-1">
            <stop stop-color="#FF1F51" offset="17%"></stop>
            <stop stop-color="#FF3648" offset="28%"></stop>
            <stop stop-color="#FF593B" offset="47%"></stop>
            <stop stop-color="#FF7231" offset="65%"></stop>
            <stop stop-color="#FF812B" offset="81%"></stop>
            <stop stop-color="#FF8629" offset="94%"></stop>
        </linearGradient>
        <linearGradient x1="61.5384615%" y1="22.9036983%" x2="43.6057692%" y2="91.6880264%" id="linearGradient-2">
            <stop stop-color="#9039D0" offset="2%"></stop>
            <stop stop-color="#FF1F51" offset="63%"></stop>
        </linearGradient>
        <linearGradient x1="0.474683544%" y1="8.0660337%" x2="81.8334652%" y2="97.528013%" id="linearGradient-3">
            <stop stop-color="#9039D0" offset="11%"></stop>
            <stop stop-color="#FF1F51" offset="39%"></stop>
            <stop stop-color="#FF1F51" offset="63%"></stop>
            <stop stop-color="#FF3648" offset="66%"></stop>
            <stop stop-color="#FF593B" offset="71%"></stop>
            <stop stop-color="#FF7231" offset="77%"></stop>
            <stop stop-color="#FF812B" offset="81%"></stop>
            <stop stop-color="#FF8629" offset="85%"></stop>
        </linearGradient>
    </defs>
	<g>
		<polygon fill="url(#linearGradient-1)" points="212.48 0 139.94 26.46 81.92 0 25.6 142.5 90.46 116.06 89.6 188.58 228.7 191.14 256 50.34"></polygon>
		<polygon fill="url(#linearGradient-2)" points="186.02 82.78 93.86 22.18 19.62 68.26 182.62 131.42"></polygon>
		<polygon fill="url(#linearGradient-3)" points="106.66 249.18 202.24 236.38 171.52 177.5 192 153.6 193.7 138.24 93.86 22.18 0 45.22 0 180.06 53.76 256 106.66 249.18 106.66 249.18 106.66 249.18"></polygon>
		<rect fill="#000000" x="42.66" y="42.66" width="170.66" height="170.66"></rect>
		<path d="M126.3,59.74 L143.36,59.74 L161.28,92.16 L180.06,59.74 L196.26,59.74 L196.26,136.54 L180.9,136.54 L180.9,86.18 L161.28,119.46 L141.66,87.04 L141.66,136.54 L126.3,136.54 L126.3,59.74 Z M59.74,59.74 L91.3,59.74 C99.8333333,59.74 106.66,62.3 111.78,67.42 C116.04,71.68 117.78,77.66 117.78,85.42 C117.798423,90.8341811 116.324466,96.1487295 113.52,100.78 C111.053261,104.945845 107.07897,108.003542 102.42,109.32 L119.48,136.62 L101.48,136.62 L87.04,112.64 L74.24,112.64 L74.24,136.54 L58.88,136.54 L58.88,59.74 L59.74,59.74 Z M90.46,97.28 C93.5220834,97.4830749 96.5545691,96.5740394 99,94.72 C101.128606,92.7256458 102.361813,89.9563375 102.42,87.04 C102.587678,83.8295173 101.337331,80.7073061 99,78.5 C96.5463497,76.6672954 93.5146214,75.7797872 90.46,76 L75.1,76 L75.1,98.14 L90.46,98.14 L90.46,97.28 Z M59.74,185.18 L123.74,185.18 L123.74,195.42 L59.74,195.42 L59.74,185.18 Z" fill="#FFFFFF"></path>
	</g>
</svg>
